X:928
T:Big Cold Mountain, The
C:Joe Buchanan's Scottish Tome - Page 544.2
I:544 2
Z:Carl Allison
R:Waltz
L:1/4
M:3/4
K:G
D | G>G G | G2 A | B>A B | g2 d | e>d e | B A D | G3- | G3 |
d2 d | g2 f | e>f g | d2 B | c>d c | B A G | A3- | A2 d |
g2 g | B2 B | c>d e | d2 c | B>A G | G F G | A3- | A2 D |
G>G G | G2 A | B>A B | g2 d | e>d e | B A D | G3- | G3 |]

